X:105
T:Tarantella
R:Tarantella
O:France
M:6/8
K:Am
a2a|e2e a2a|e2e efe|f2f afb|e2e cde|\
d2d Bcd|c2c ABc|BAB dcB|A3:|\
|:A2B|cBc dcB|c2c ABc|BAB dcB|A3:|
